resources/icons/content_copy_24dp.svg

<svg id="content_copy_24dp" xmlns="http://www.w3.org/2000/svg" width="24" height="24" viewBox="0 0 24 24">
  <path id="Path_305" data-name="Path 305" d="M0,0H24V24H0Z" fill="none"/>
  <path id="Path_306" data-name="Path 306" d="M16,1H4A2.006,2.006,0,0,0,2,3V17H4V3H16Zm3,4H8A2.006,2.006,0,0,0,6,7V21a2.006,2.006,0,0,0,2,2H19a2.006,2.006,0,0,0,2-2V7A2.006,2.006,0,0,0,19,5Zm0,16H8V7H19Z" fill="#005699"/>
</svg>

<svg xmlns="http://www.w3.org/2000/svg" height="24px" viewBox="0 0 24 24" width="24px" fill="#000000"><path d="M0 0h24v24H0V0z" fill="none"/><path d="M16 1H4c-1.1 0-2 .9-2 2v14h2V3h12V1zm3 4H8c-1.1 0-2 .9-2 2v14c0 1.1.9 2 2 2h11c1.1 0 2-.9 2-2V7c0-1.1-.9-2-2-2zm0 16H8V7h11v14z"/></svg>
